public/assets/happy.svg

<svg width="68" height="68" viewBox="0 0 68 68" fill="none" xmlns="http://www.w3.org/2000/svg">
<path d="M2.39853 2.88708C2.39853 7.69511 -0.125362 20.2515 7.52984 20.2515C11.926 20.2515 18.1825 18.6891 19.1401 13.7881C20.9454 4.54764 9.73333 5.49175 3.3315 5.49175" stroke="#676767" stroke-width="4" stroke-linecap="round" stroke-linejoin="round"/>
<path d="M61.1752 4.62349C65.3268 5.49278 66.5465 6.43402 65.7882 10.3152C65.4177 12.2113 63.5291 15.3735 61.9009 16.5857C59.5341 18.3477 51.5002 18.676 49.254 16.5857C39.8868 7.86849 59.8206 -3.10707 63.9741 4.62349" stroke="#676767" stroke-width="4" stroke-linecap="round" stroke-linejoin="round"/>
<path d="M6.23242 48.0347C6.44065 56.1735 12.0478 59.2299 19.2939 62.6015C23.5242 64.5699 33.5761 67.9611 37.9532 64.5309C40.2803 62.7072 44.1308 62.6916 45.6243 60.1898C46.5635 58.6166 47.8719 58.7442 49.5116 58.4051C50.2604 58.2503 50.3552 56.4283 51.0147 55.8487C54.6973 52.612 59.0558 50.4331 61.2774 46.2982" stroke="#676767" stroke-width="4" stroke-linecap="round" stroke-linejoin="round"/>
</svg>

<svg xmlns="http://www.w3.org/2000/svg" width="68" height="68" fill="none"  stroke="#676767" stroke-width="4" stroke-linecap="round" stroke-linejoin="round" xmlns:v="https://vecta.io/nano"><path d="M2.4 2.887C2.4 7.695-.124 20.25 7.53 20.25c4.396 0 10.653-1.562 11.6-6.463 1.805-9.24-9.407-8.296-15.8-8.296m57.855-.87c4.152.87 5.37 1.8 4.613 5.692-.37 1.896-2.26 5.058-3.887 6.27-2.367 1.762-10.4 2.1-12.647 0C39.887 7.868 59.82-3.107 63.974 4.623M6.232 48.035c.208 8.14 5.815 11.195 13.06 14.567 4.23 1.968 14.282 5.36 18.66 1.93 2.327-1.824 6.178-1.84 7.67-4.34.94-1.573 2.248-1.446 3.887-1.785.75-.155.844-1.977 1.503-2.556 3.683-3.237 8.04-5.416 10.263-9.55"/></svg>
